svg/fluentui-system-icons/ic_fluent_delete_12_regular.svg

<svg width="12" height="12" viewBox="0 0 12 12" fill="none" xmlns="http://www.w3.org/2000/svg">
<path d="M5 3H7C7 2.44772 6.55228 2 6 2C5.44772 2 5 2.44772 5 3ZM4 3C4 1.89543 4.89543 1 6 1C7.10457 1 8 1.89543 8 3L10.5 3C10.7761 3 11 3.22386 11 3.5C11 3.77614 10.7761 4 10.5 4H10.059L9.61576 9.1708C9.52709 10.2054 8.66143 11 7.62307 11H4.37693C3.33857 11 2.47291 10.2054 2.38424 9.1708L1.94102 4H1.5C1.22386 4 1 3.77614 1 3.5C1 3.22386 1.22386 3 1.5 3L4 3ZM7.5 6C7.5 5.72386 7.27614 5.5 7 5.5C6.72386 5.5 6.5 5.72386 6.5 6V8C6.5 8.27614 6.72386 8.5 7 8.5C7.27614 8.5 7.5 8.27614 7.5 8V6ZM5 5.5C5.27614 5.5 5.5 5.72386 5.5 6V8C5.5 8.27614 5.27614 8.5 5 8.5C4.72386 8.5 4.5 8.27614 4.5 8V6C4.5 5.72386 4.72386 5.5 5 5.5ZM3.38058 9.0854C3.42492 9.60268 3.85775 10 4.37693 10H7.62307C8.14225 10 8.57508 9.60269 8.61942 9.0854L9.05531 4H2.94469L3.38058 9.0854Z" fill="#212121"/>
</svg>

<svg xmlns="http://www.w3.org/2000/svg" width="12" height="12"><path d="M5 3h2a1 1 0 0 0-2 0ZM4 3a2 2 0 1 1 4 0h2.5a.5.5 0 0 1 0 1h-.441l-.443 5.17A2 2 0 0 1 7.623 11H4.377a2 2 0 0 1-1.993-1.83L1.941 4H1.5a.5.5 0 0 1 0-1H4Zm3.5 3a.5.5 0 0 0-1 0v2a.5.5 0 0 0 1 0V6ZM5 5.5a.5.5 0 0 1 .5.5v2a.5.5 0 0 1-1 0V6a.5.5 0 0 1 .5-.5ZM3.38 9.085a1 1 0 0 0 .997.915h3.246a1 1 0 0 0 .996-.915L9.055 4h-6.11l.436 5.085Z"/></svg>
